packages/bezier-icons/icons/mobile.svg

<svg width="24" height="24" viewBox="0 0 24 24" fill="none" xmlns="http://www.w3.org/2000/svg">
<path fill-rule="evenodd" clip-rule="evenodd" d="M8 2C6.89543 2 6 2.89543 6 4V20C6 21.1046 6.89543 22 8 22H16C17.1046 22 18 21.1046 18 20V4C18 2.89543 17.1046 2 16 2H8ZM16 5H8V19H16V5Z" fill="#313234"/>
</svg>

<svg xmlns="http://www.w3.org/2000/svg" width="24" height="24" fill="none" viewBox="0 0 24 24"><path fill="#313234" fill-rule="evenodd" d="M8 2a2 2 0 0 0-2 2v16a2 2 0 0 0 2 2h8a2 2 0 0 0 2-2V4a2 2 0 0 0-2-2zm8 3H8v14h8z" clip-rule="evenodd"/></svg>
